X:B15D2
T:Whitehall
M:9/8
K:D
P:A
A,| "D"D>EF "Em"G>AB "A"c>de| "Em9"f>gf "A"e3 "D/F"A3| "G"G>FE "D/F"F>ED "G"B,>CD "A"CB,A, "G"D3 "D"F2:|
P:B
F| "Em"G>FG Eed "A"c>BA| "Em"e>fe "A"c3 "Bm"B3| "Em"G>FG "D/F"F>GF "G6"E>FD "A"CB,A, "G"D3 "D"F2:|

